app/assets/images/icons/trust.svg

<svg width="101" height="101" viewBox="0 0 101 101" xmlns="http://www.w3.org/2000/svg">
<path d="m100.59 43.075-16.904-21.96c-0.6257-0.8122-1.767-1.0125-2.6323-0.4624l-10.914 6.9413h-14.235c-0.1841 0-0.3675 0.0393-0.5448 0.091l-11.037 3.177-11.452-3.1323-11.128-7.077c-0.8507-0.5409-1.9711-0.3575-2.6038 0.4269l-18.698 23.16c-0.67194 0.8322-0.56097 2.0474 0.24966 2.7447l9.8001 8.4339 8.7921 11.848c-2.5713 2.7394-2.5213 7.0599 0.1542 9.7361 1.1859 1.1852 2.6939 1.8548 4.245 2.0104-0.0539 0.3514-0.0817 0.7082-0.0817 1.0704 0 1.8694 0.7282 3.627 2.0498 4.9485 1.3223 1.3223 3.0799 2.0505 4.9493 2.0505 0.0254 0 0.0501-0.0015 0.0748-0.0023-8e-4 0.0478-0.0031 0.0948-0.0031 0.1426 0 1.8694 0.7282 3.627 2.0497 4.9493 1.3223 1.3216 3.08 2.0498 4.9494 2.0498 0.3691 0 0.7343-0.0301 1.0926-0.0856 0.1518 1.5566 0.823 3.0715 2.0128 4.2613 1.3639 1.3647 3.1562 2.0462 4.9485 2.0462 1.7924 0 3.5847-0.6815 4.9494-2.0462l1.0703-1.0703 0.4493 0.3621c1.3531 1.3108 3.11 1.9657 4.8669 1.9657 1.7923 0 3.5847-0.6819 4.9486-2.0466 1.3924-1.3924 2.0744-3.2302 2.0458-5.0588 1.8278 0.0278 3.6664-0.6534 5.0588-2.0451 1.3909-1.3916 2.0729-3.2279 2.0459-5.0557 1.9041 0.0301 3.7103-0.7012 5.058-2.0489 1.3924-1.3924 2.0744-3.2302 2.0459-5.0588 1.8293 0.0277 3.6663-0.6534 5.0587-2.0459 2.3765-2.3764 2.6824-6.0497 0.9201-8.7613l6.4196-13.445 9.6514-8.3052c0.798-0.6866 0.919-1.8764 0.277-2.7093zm-79.481-18.131 8.0016 5.0881-17.406 21.206-6.9752-6.0035 16.38-20.291zm1.1289 44.961 2.4149-2.415c0.0732-0.0732 0.1503-0.1425 0.2289-0.2072 0.4724-0.3853 1.0441-0.615 1.6498-0.6697 0.0169-0.0015 0.0347-0.0015 0.0516-0.0023 0.0863-0.0069 0.1726-0.0115 0.2597-0.0108 0.8276 0.0116 1.5966 0.3499 2.1668 0.9517 1.1189 1.1828 1.0588 3.1154-0.134 4.3082l-2.3418 2.3418c-1.1844 1.1844-3.1116 1.1844-4.2959 0-1.1844-1.1851-1.1844-3.1123 0-4.2967zm6.2131 12.326c-0.5741-0.5733-0.89-1.3361-0.89-2.1475 0-0.8115 0.3159-1.5743 0.89-2.1484l4.6827-4.6827c0.897-0.897 2.3071-1.1428 3.4537-0.5965 1.1821 0.5633 1.8471 1.8463 1.6737 3.137-0.0925 0.6889-0.413 1.3377-0.9047 1.8301l-4.6087 4.608c-0.5741 0.5741-1.337 0.89-2.1484 0.89s-1.5743-0.3159-2.1483-0.89zm7.0707 7.1394c-0.5741-0.5734-0.89-1.3362-0.89-2.1476s0.3159-1.5743 0.89-2.1484l4.682-4.6827c0.9594-0.9586 2.4982-1.1651 3.6725-0.4816 1.0727 0.6241 1.6344 1.8493 1.4502 3.0699-0.1009 0.6712-0.4199 1.3023-0.9 1.7824l-4.608 4.608c-0.5741 0.574-1.3369 0.89-2.1483 0.89s-1.5743-0.316-2.1484-0.89zm8.054 6.2262c-1.1844-1.1844-1.1844-3.1116 0-4.296l2.415-2.4149c0.0732-0.0732 0.1495-0.1418 0.2281-0.2065 0.0023-0.0016 0.0038-0.0031 0.0053-0.0047 0.393-0.319 0.8546-0.5324 1.347-0.6257 0.0116-0.0015 0.0231-0.0031 0.0347-0.0046 0.0847-0.0154 0.171-0.0277 0.2573-0.0354 0.0347-0.0031 0.0694-0.0031 0.1048-0.0054 0.0709-0.0039 0.1411-0.0085 0.2127-0.0077 0.8268 0.0115 1.5966 0.349 2.1669 0.9516 0.0701 0.074 0.1356 0.151 0.1957 0.2304 0.9108 1.1905 0.7883 2.959-0.3421 4.0902l-2.3295 2.3294c-1.1843 1.1844-3.1115 1.1836-4.2959-7e-4zm36.945-22.102c-1.1843 1.1852-3.1115 1.1844-4.2959 0-0.0431-0.0431-0.0886-0.0832-0.1348-0.121l-12.734-12.868c-0.7698-0.7775-2.0235-0.7836-2.801-0.0138-0.7775 0.769-0.7837 2.0227-0.0146 2.8002l12.872 13.006c0.0016 0.0015 0.0031 3e-3 0.0047 0.0046 1.1843 1.1843 1.1843 3.1123 0 4.2967-0.5741 0.574-1.337 0.89-2.1484 0.89-0.8122 0-1.575-0.316-2.1483-0.89l-8.6111-8.7005c-0.7691-0.7775-2.0228-0.7837-2.8003-0.0147-0.7775 0.7698-0.7837 2.0235-0.0146 2.8011l8.4793 8.5671c0.0432 0.054 0.0894 0.1056 0.1387 0.1549 1.1844 1.1844 1.1844 3.1123 0 4.2967-1.1851 1.1844-3.1131 1.1836-4.2975-8e-4l-4.6997-4.749c-0.7698-0.7775-2.0235-0.7844-2.801-0.0146-0.7775 0.769-0.7836 2.0227-0.0146 2.8002l4.5687 4.6157c0.0431 0.054 0.0894 0.1064 0.1395 0.1557 1.1843 1.1844 1.1843 3.1123 0 4.2967-1.1844 1.1851-3.1116 1.1844-4.296 0-0.1364-0.1364-0.2966-0.2412-0.4492-0.3583-0.1295-0.0987-0.1634-0.1672-0.0986-0.3244 0.0655-0.1595 0.1633-0.3036 0.2288-0.4639 0.0725-0.1788 0.131-0.363 0.188-0.5479 0.3036-0.9786 0.393-2.0312 0.2566-3.0468-0.262-1.9488-1.3338-3.7072-2.9582-4.8199-0.8776-0.6003-1.8933-0.9941-2.9459-1.142 0.5102-2.2501-0.1024-4.6897-1.696-6.3734-1.3115-1.3855-3.083-2.163-4.9886-2.1892-0.0694-7e-4 -0.1387-7e-4 -0.2089 0 0.0424-1.8185-0.6187-3.6255-1.8724-4.9501-1.3123-1.3855-3.0839-2.163-4.9887-2.1892-0.5664-0.0077-1.1381 0.0524-1.6899 0.1795-0.2358-1.6405-1.0626-3.1585-2.3148-4.2443-1.2444-1.0772-2.8095-1.6752-4.4762-1.6983-1.7546-0.0254-3.4783 0.6219-4.7814 1.7985l-7.6556-10.316 18.315-22.313 5.8371 1.5966-7.6233 13.452c-0.9216 1.6266-1.1543 3.5145-0.6557 5.3161 0.4985 1.8024 1.6683 3.3019 3.2949 4.2235 0.1017 0.0578 0.2042 0.1125 0.3083 0.1649 0.0077 0.0039 0.0154 0.0077 0.0238 0.0116 0.2736 0.1364 0.5549 0.2535 0.84 0.3521 1.3277 0.46 2.7617 0.5101 4.1449 0.1279 1.8015-0.4985 3.3011-1.669 4.2227-3.2949l4.954-8.7421 8.8453 0.6272 23.554 23.553c1.1836 1.1852 1.1836 3.1124-8e-4 4.2967zm0.8207-9.0781-22.096-22.095c-0.0416-0.0423-0.0855-0.0824-0.131-0.1202-0.3182-0.265-0.7128-0.4253-1.1289-0.4546l-10.83-0.7683c-0.749-0.0516-1.4934 0.3468-1.8632 0.9995l-5.5697 9.8294c-0.3999 0.7058-1.0511 1.2136-1.8332 1.4301-0.7814 0.2166-1.6012 0.1148-2.3079-0.2851-0.7058-0.3999-1.2136-1.051-1.4301-1.8332-0.2166-0.7821-0.1156-1.602 0.2851-2.3078l7.4352-13.122 3.0129-0.8669c0.0201-0.0062 0.0393-0.0139 0.0594-0.0201l11.245-3.2471h13.587l16.962 21.562-5.3955 11.3zm7.99-14.408-15.686-19.951 8.0055-5.0911 14.657 19.038-6.9767 6.0035z"/>
<path d="m61.189 23.875c0.507 0 1.0141-0.1934 1.4009-0.5802l13.528-13.528c0.7737-0.77365 0.7737-2.0274 0-2.801-0.7736-0.77365-2.0273-0.77365-2.801 0l-13.528 13.528c-0.7737 0.7736-0.7737 2.0273 0 2.801 0.3868 0.3868 0.8939 0.5802 1.4001 0.5802z"/>
<path d="m38.411 23.295c0.3868 0.3868 0.8939 0.5802 1.4009 0.5802 0.5063 0 1.0133-0.1934 1.4001-0.5802 0.7737-0.7737 0.7737-2.0274 0-2.801l-13.528-13.528c-0.7736-0.77365-2.0274-0.77365-2.801 0-0.7737 0.77365-0.7737 2.0274 0 2.801l13.528 13.528z"/>
<path d="m50.5 23.875c1.0934 0 1.9803-0.8869 1.9803-1.9803v-11.196c0-1.0935-0.8869-1.9804-1.9803-1.9804s-1.9804 0.88693-1.9804 1.9804v11.196c0 1.0934 0.887 1.9803 1.9804 1.9803z"/>
<path d="m48.672 3.5215c0.3144 0.7621 1.0981 1.2622 1.9249 1.219 0.8168-0.04238 1.5342-0.59411 1.787-1.3716 0.2535-0.78367-0.0224-1.6768-0.6789-2.1761-0.6696-0.51011-1.6036-0.53862-2.304-0.07551-0.7814 0.51628-1.0842 1.5442-0.729 2.4042z"/>
</svg>

<svg width="101" height="101" viewBox="0 0 101 101" fill="none" xmlns="http://www.w3.org/2000/svg">
<path d="M100.588 43.0748L83.6837 21.1151C83.058 20.3029 81.9167 20.1026 81.0514 20.6527L70.1371 27.594H55.9023C55.7182 27.594 55.5348 27.6333 55.3575 27.685L44.3207 30.862L32.8685 27.7297L21.7407 20.6527C20.89 20.1118 19.7696 20.2952 19.1369 21.0796L0.439094 44.2399C-0.232842 45.0721 -0.12188 46.2873 0.688759 46.9846L10.4889 55.4185L19.281 67.2668C16.7097 70.0062 16.7597 74.3267 19.4352 77.0029C20.6211 78.1881 22.1291 78.8577 23.6802 79.0133C23.6263 79.3647 23.5985 79.7215 23.5985 80.0837C23.5985 81.9531 24.3267 83.7107 25.6483 85.0322C26.9706 86.3545 28.7282 87.0827 30.5976 87.0827C30.623 87.0827 30.6477 87.0812 30.6724 87.0804C30.6716 87.1282 30.6693 87.1752 30.6693 87.223C30.6693 89.0924 31.3975 90.85 32.719 92.1723C34.0413 93.4939 35.799 94.2221 37.6684 94.2221C38.0375 94.2221 38.4027 94.192 38.761 94.1365C38.9128 95.6931 39.584 97.208 40.7738 98.3978C42.1377 99.7625 43.93 100.444 45.7223 100.444C47.5147 100.444 49.307 99.7625 50.6717 98.3978L51.742 97.3275L52.1913 97.6896C53.5444 99.0004 55.3013 99.6553 57.0582 99.6553C58.8505 99.6553 60.6429 98.9734 62.0068 97.6087C63.3992 96.2163 64.0812 94.3785 64.0526 92.5499C65.8804 92.5777 67.719 91.8965 69.1114 90.5048C70.5023 89.1132 71.1843 87.2769 71.1573 85.4491C73.0614 85.4792 74.8676 84.7479 76.2153 83.4002C77.6077 82.0078 78.2897 80.17 78.2612 78.3414C80.0905 78.3691 81.9275 77.688 83.3199 76.2955C85.6964 73.9191 86.0023 70.2458 84.24 67.5342L90.6596 54.0893L100.311 45.7841C101.109 45.0975 101.23 43.9077 100.588 43.0748ZM21.1073 24.944L29.1089 30.0321L11.7025 51.2382L4.72731 45.2347L21.1073 24.944ZM22.2362 69.9052L24.6511 67.4902C24.7243 67.417 24.8014 67.3477 24.88 67.283C25.3524 66.8977 25.9241 66.668 26.5298 66.6133C26.5467 66.6118 26.5645 66.6118 26.5814 66.611C26.6677 66.6041 26.754 66.5995 26.8411 66.6002C27.6687 66.6118 28.4377 66.9501 29.0079 67.5519C30.1268 68.7347 30.0667 70.6673 28.8739 71.8601L26.5321 74.2019C25.3477 75.3863 23.4205 75.3863 22.2362 74.2019C21.0518 73.0168 21.0518 71.0896 22.2362 69.9052ZM28.4493 82.2312C27.8752 81.6579 27.5593 80.8951 27.5593 80.0837C27.5593 79.2722 27.8752 78.5094 28.4493 77.9353L33.132 73.2526C34.029 72.3556 35.4391 72.1098 36.5857 72.6561C37.7678 73.2194 38.4328 74.5024 38.2594 75.7931C38.1669 76.482 37.8464 77.1308 37.3547 77.6232L32.746 82.2312C32.1719 82.8053 31.409 83.1212 30.5976 83.1212C29.7862 83.1212 29.0233 82.8053 28.4493 82.2312ZM35.52 89.3706C34.9459 88.7972 34.63 88.0344 34.63 87.223C34.63 86.4116 34.9459 85.6487 35.52 85.0746L40.202 80.3919C41.1614 79.4333 42.7002 79.2268 43.8745 79.9103C44.9472 80.5344 45.5089 81.7596 45.3247 82.9802C45.2238 83.6514 44.9048 84.2825 44.4247 84.7626L39.8167 89.3706C39.2426 89.9446 38.4798 90.2606 37.6684 90.2606C36.857 90.2606 36.0941 89.9446 35.52 89.3706ZM43.574 95.5968C42.3896 94.4124 42.3896 92.4852 43.574 91.3008L45.989 88.8859C46.0622 88.8127 46.1385 88.7441 46.2171 88.6794C46.2194 88.6778 46.2209 88.6763 46.2224 88.6747C46.6154 88.3557 47.077 88.1423 47.5694 88.049C47.581 88.0475 47.5925 88.0459 47.6041 88.0444C47.6888 88.029 47.7751 88.0167 47.8614 88.009C47.8961 88.0059 47.9308 88.0059 47.9662 88.0036C48.0371 87.9997 48.1073 87.9951 48.1789 87.9959C49.0057 88.0074 49.7755 88.3449 50.3458 88.9475C50.4159 89.0215 50.4814 89.0985 50.5415 89.1779C51.4523 90.3684 51.3298 92.1369 50.1994 93.2681L47.8699 95.5975C46.6856 96.7819 44.7584 96.7811 43.574 95.5968ZM80.5189 73.4945C79.3346 74.6797 77.4074 74.6789 76.223 73.4945C76.1799 73.4514 76.1344 73.4113 76.0882 73.3735L63.3537 60.505C62.5839 59.7275 61.3302 59.7214 60.5527 60.4912C59.7752 61.2602 59.769 62.5139 60.5381 63.2914L73.4104 76.2979C73.412 76.2994 73.4135 76.3009 73.4151 76.3025C74.5994 77.4868 74.5994 79.4148 73.4151 80.5992C72.841 81.1732 72.0781 81.4892 71.2667 81.4892C70.4545 81.4892 69.6917 81.1732 69.1184 80.5992L60.5073 71.8987C59.7382 71.1212 58.4845 71.115 57.707 71.884C56.9295 72.6538 56.9233 73.9075 57.6924 74.6851L66.1717 83.2522C66.2149 83.3062 66.2611 83.3578 66.3104 83.4071C67.4948 84.5915 67.4948 86.5194 66.3104 87.7038C65.1253 88.8882 63.1973 88.8874 62.0129 87.703L57.3132 82.954C56.5434 82.1765 55.2897 82.1696 54.5122 82.9394C53.7347 83.7084 53.7286 84.9621 54.4976 85.7396L59.0663 90.3553C59.1094 90.4093 59.1557 90.4617 59.2058 90.511C60.3901 91.6954 60.3901 93.6233 59.2058 94.8077C58.0214 95.9928 56.0942 95.9921 54.9098 94.8077C54.7734 94.6713 54.6132 94.5665 54.4606 94.4494C54.3311 94.3507 54.2972 94.2822 54.362 94.125C54.4275 93.9655 54.5253 93.8214 54.5908 93.6611C54.6633 93.4823 54.7218 93.2981 54.7788 93.1132C55.0824 92.1346 55.1718 91.082 55.0354 90.0664C54.7734 88.1176 53.7016 86.3592 52.0772 85.2465C51.1996 84.6462 50.1839 84.2524 49.1313 84.1045C49.6415 81.8544 49.0289 79.4148 47.4353 77.7311C46.1238 76.3456 44.3523 75.5681 42.4467 75.5419C42.3773 75.5412 42.308 75.5412 42.2378 75.5419C42.2802 73.7234 41.6191 71.9164 40.3654 70.5918C39.0531 69.2063 37.2815 68.4288 35.3767 68.4026C34.8103 68.3949 34.2386 68.455 33.6868 68.5821C33.451 66.9416 32.6242 65.4236 31.372 64.3378C30.1276 63.2606 28.5625 62.6626 26.8958 62.6395C25.1412 62.6141 23.4175 63.2614 22.1144 64.438L14.4588 54.1224L32.7737 31.8098L38.6108 33.4064L30.9875 46.8583C30.0659 48.4849 29.8332 50.3728 30.3318 52.1744C30.8303 53.9768 32.0001 55.4763 33.6267 56.3979C33.7284 56.4557 33.8309 56.5104 33.935 56.5628C33.9427 56.5667 33.9504 56.5705 33.9588 56.5744C34.2324 56.7108 34.5137 56.8279 34.7988 56.9265C36.1265 57.3865 37.5605 57.4366 38.9437 57.0544C40.7452 56.5559 42.2448 55.3854 43.1664 53.7595L48.1204 45.0174L56.9657 45.6446L80.5197 69.1978C81.7033 70.383 81.7033 72.3102 80.5189 73.4945ZM81.3396 64.4164L59.2435 42.3211C59.2019 42.2788 59.158 42.2387 59.1125 42.2009C58.7943 41.9359 58.3997 41.7756 57.9836 41.7463L47.1533 40.978C46.4043 40.9264 45.6599 41.3248 45.2901 41.9775L39.7204 51.8069C39.3205 52.5127 38.6693 53.0205 37.8872 53.237C37.1058 53.4536 36.286 53.3518 35.5793 52.9519C34.8735 52.552 34.3657 51.9009 34.1492 51.1187C33.9326 50.3366 34.0336 49.5167 34.4343 48.8109L41.8695 35.6889L44.8824 34.822C44.9025 34.8158 44.9217 34.8081 44.9418 34.8019L56.1867 31.5548H69.7733L86.7351 53.1168L81.3396 64.4164ZM89.3296 50.0083L73.6439 30.0575L81.6494 24.9664L96.3063 44.0048L89.3296 50.0083Z" fill="black"/>
<path d="M61.1886 23.8752C61.6956 23.8752 62.2027 23.6818 62.5895 23.295L76.1176 9.76688C76.8913 8.99323 76.8913 7.73951 76.1176 6.96586C75.344 6.19221 74.0903 6.19221 73.3166 6.96586L59.7885 20.494C59.0148 21.2676 59.0148 22.5213 59.7885 23.295C60.1753 23.6818 60.6824 23.8752 61.1886 23.8752Z" fill="black"/>
<path d="M38.4106 23.295C38.7974 23.6818 39.3045 23.8752 39.8115 23.8752C40.3178 23.8752 40.8248 23.6818 41.2116 23.295C41.9853 22.5213 41.9853 21.2676 41.2116 20.494L27.6835 6.96586C26.9099 6.19221 25.6561 6.19221 24.8825 6.96586C24.1088 7.73951 24.1088 8.99323 24.8825 9.76688L38.4106 23.295Z" fill="black"/>
<path d="M50.4999 23.8753C51.5933 23.8753 52.4802 22.9884 52.4802 21.895V10.6994C52.4802 9.60592 51.5933 8.71899 50.4999 8.71899C49.4065 8.71899 48.5195 9.60592 48.5195 10.6994V21.895C48.5195 22.9884 49.4065 23.8753 50.4999 23.8753Z" fill="black"/>
<path d="M48.6722 3.52148C48.9866 4.28358 49.7703 4.78367 50.5971 4.74052C51.4139 4.69814 52.1313 4.14641 52.3841 3.36891C52.6376 2.58524 52.3617 1.69215 51.7052 1.19282C51.0356 0.682707 50.1016 0.654196 49.4012 1.11731C48.6198 1.63359 48.317 2.66153 48.6722 3.52148Z" fill="black"/>
</svg>
